icons/appwrite-filled.svg

<svg xmlns="http://www.w3.org/2000/svg" width="256" height="256" fill="none" viewBox="0 0 256 256"><rect width="256" height="256" fill="#F02E65" rx="60"/><path fill="#fff" fill-rule="evenodd" d="M159.946 192.801C148.186 192.801 137.162 189.649 127.675 184.142C120.556 188.263 112.645 191.02 104.341 192.181C87.4292 194.546 70.2701 190.096 56.6391 179.81C49.8831 174.719 44.1965 168.347 39.9042 161.058C35.612 153.768 32.7982 145.704 31.6236 137.327C30.4491 128.95 30.9369 120.423 33.0591 112.234C35.1813 104.045 38.8963 96.3552 43.9919 89.6029C49.0874 82.8505 55.4636 77.1683 62.756 72.8812C70.0485 68.5941 78.1141 65.786 86.4927 64.6173C94.8707 63.4488 103.397 63.9425 111.584 66.0705C117.235 67.5393 122.648 69.7668 127.679 72.683C137.166 67.1786 148.188 64.0268 159.946 64.0268C195.507 64.0268 224.333 92.8534 224.333 128.414C224.333 163.974 195.507 192.801 159.946 192.801ZM116.897 80.5317L116.917 80.5148C107.976 76.503 98.0123 75.0407 88.1517 76.4197C74.3622 78.3481 61.903 85.6756 53.5158 96.7901C45.1286 107.905 41.5001 121.895 43.4286 135.686C45.357 149.475 52.6844 161.934 63.7989 170.321C74.9132 178.708 88.9045 182.337 102.694 180.408C116.484 178.48 128.943 171.153 137.33 160.038C145.717 148.923 149.346 134.933 147.417 121.143C146.528 114.781 144.489 108.702 141.459 103.176C135.972 93.2076 127.339 85.214 116.897 80.5317Z" clip-rule="evenodd"/><path fill="#fff" d="M97.1484 106.137C97.071 106.327 96.0869 110.194 95.0265 114.78C93.9264 119.366 92.1827 126.606 91.1991 130.888C89.3021 138.734 88.165 143.889 88.165 144.572C88.165 144.76 89.3407 144.913 90.7799 144.913H93.3965L94.5698 139.681C95.2537 136.839 96.7702 130.319 97.9827 125.203C99.1959 120.085 100.673 113.87 101.243 111.367C101.81 108.865 102.379 106.593 102.493 106.327C102.608 105.987 101.962 105.874 99.9916 105.874C98.5126 105.874 97.2227 105.987 97.1484 106.137ZM76.7934 122.549L73.3062 126.34L74.3308 127.552C74.8975 128.234 76.4533 129.941 77.78 131.343L80.2057 133.92H87.1041L83.8452 130.394C82.0623 128.501 80.5839 126.681 80.5839 126.454C80.5839 126.189 81.9494 124.484 83.6175 122.664C85.2844 120.808 86.6492 119.214 86.6492 119.024C86.6492 118.873 85.2088 118.759 83.4658 118.759H80.3199L76.7934 122.549ZM103.326 118.986C103.326 119.101 103.971 119.82 104.765 120.616C107.724 123.573 109.808 126.076 109.694 126.567C109.619 126.833 108.177 128.613 106.435 130.471L103.29 133.92H106.814L110.339 133.882L113.559 130.358C115.342 128.388 116.782 126.642 116.782 126.415C116.782 126.227 115.266 124.445 113.37 122.437L109.96 118.759H106.661C104.804 118.759 103.326 118.873 103.326 118.986Z"/></svg>

<svg xmlns="http://www.w3.org/2000/svg" width="256" height="256" fill="none"><rect width="256" height="256" fill="#F02E65" rx="60"/><path fill="#fff" fill-rule="evenodd" d="M159.946 192.801c-11.76 0-22.784-3.152-32.271-8.659a64.39 64.39 0 0 1-71.036-4.332 64.4 64.4 0 0 1-25.015-42.483 64.39 64.39 0 0 1 54.869-72.71 64.4 64.4 0 0 1 41.186 8.066c9.487-5.504 20.509-8.656 32.267-8.656 35.561 0 64.387 28.826 64.387 64.387s-28.826 64.387-64.387 64.387m-43.049-112.27.02-.016a52.501 52.501 0 1 0 24.542 22.661 52.7 52.7 0 0 0-24.562-22.644" clip-rule="evenodd"/><path fill="#fff" d="M97.148 106.137c-.077.19-1.061 4.057-2.121 8.643-1.1 4.586-2.844 11.826-3.828 16.108-1.897 7.846-3.034 13.001-3.034 13.684 0 .188 1.176.341 2.615.341h2.617l1.173-5.232c.684-2.842 2.2-9.362 3.413-14.478 1.213-5.118 2.69-11.333 3.26-13.836.567-2.502 1.136-4.774 1.25-5.04.115-.34-.531-.453-2.501-.453-1.48 0-2.77.113-2.844.263m-20.355 16.412-3.487 3.791 1.025 1.212c.566.682 2.122 2.389 3.449 3.791l2.426 2.577h6.898l-3.259-3.526c-1.783-1.893-3.261-3.713-3.261-3.94 0-.265 1.365-1.97 3.034-3.79 1.666-1.856 3.031-3.45 3.031-3.64 0-.151-1.44-.265-3.183-.265H80.32zm26.533-3.563c0 .115.645.834 1.439 1.63 2.959 2.957 5.043 5.46 4.929 5.951-.075.266-1.517 2.046-3.259 3.904l-3.145 3.449h3.524l3.525-.038 3.22-3.524c1.783-1.97 3.223-3.716 3.223-3.943 0-.188-1.516-1.97-3.412-3.978l-3.41-3.678h-3.299c-1.857 0-3.335.114-3.335.227"/></svg>
